humanity-icon-theme/Humanity-Dark/status/48/weather-clear.svg

<?xml version="1.0" encoding="UTF-8" standalone="no"?>
<!-- Created with Inkscape (http://www.inkscape.org/) -->

<svg
   xmlns:svg="http://www.w3.org/2000/svg"
   xmlns="http://www.w3.org/2000/svg"
   xmlns:xlink="http://www.w3.org/1999/xlink"
   version="1.1"
   width="48"
   height="48"
   id="svg2869">
  <defs
     id="defs2871">
    <linearGradient
       id="linearGradient4031">
      <stop
         id="stop4033"
         style="stop-color:#ffffff;stop-opacity:1"
         offset="0" />
      <stop
         id="stop4035"
         style="stop-color:#ffffff;stop-opacity:0.07843138"
         offset="1" />
    </linearGradient>
    <linearGradient
       id="linearGradient3673">
      <stop
         id="stop3675"
         style="stop-color:#ffffff;stop-opacity:1"
         offset="0" />
      <stop
         id="stop3677"
         style="stop-color:#ffffff;stop-opacity:0"
         offset="1" />
    </linearGradient>
    <linearGradient
       id="linearGradient3663">
      <stop
         id="stop3665"
         style="stop-color:#edd563;stop-opacity:1"
         offset="0" />
      <stop
         id="stop3667"
         style="stop-color:#e08223;stop-opacity:1"
         offset="1" />
    </linearGradient>
    <linearGradient
       id="linearGradient3655">
      <stop
         id="stop3657"
         style="stop-color:#bb5e12;stop-opacity:1"
         offset="0" />
      <stop
         id="stop3659"
         style="stop-color:#cd8033;stop-opacity:1"
         offset="1" />
    </linearGradient>
    <linearGradient
       x1="28.402781"
       y1="45.487808"
       x2="21.573414"
       y2="4.5121903"
       id="linearGradient3661"
       xlink:href="#linearGradient3655"
       gradientUnits="userSpaceOnUse" />
    <radialGradient
       cx="19.622166"
       cy="9.3902397"
       r="20.487812"
       fx="19.622166"
       fy="9.3902397"
       id="radialGradient3669"
       xlink:href="#linearGradient3663"
       gradientUnits="userSpaceOnUse"
       gradientTransform="matrix(0.19047887,1.0952379,-1.3678103,0.23787664,28.728624,-14.334419)" />
    <linearGradient
       x1="16.806557"
       y1="6.5501556"
       x2="32.378464"
       y2="50.279037"
       id="linearGradient3679"
       xlink:href="#linearGradient3673"
       gradientUnits="userSpaceOnUse" />
    <linearGradient
       x1="7"
       y1="23"
       x2="9"
       y2="21"
       id="linearGradient3761"
       xlink:href="#linearGradient3663"
       gradientUnits="userSpaceOnUse"
       gradientTransform="translate(1.3241161,1.297204)" />
    <linearGradient
       x1="25"
       y1="31"
       x2="25"
       y2="29"
       id="linearGradient3763"
       xlink:href="#linearGradient3663"
       gradientUnits="userSpaceOnUse" />
    <linearGradient
       x1="41"
       y1="25"
       x2="39"
       y2="22"
       id="linearGradient3765"
       xlink:href="#linearGradient3663"
       gradientUnits="userSpaceOnUse" />
    <linearGradient
       x1="47"
       y1="8"
       x2="44"
       y2="7"
       id="linearGradient3767"
       xlink:href="#linearGradient3663"
       gradientUnits="userSpaceOnUse" />
    <linearGradient
       x1="40"
       y1="-9"
       x2="38"
       y2="-7"
       id="linearGradient3769"
       xlink:href="#linearGradient3663"
       gradientUnits="userSpaceOnUse" />
    <linearGradient
       x1="25"
       y1="-15"
       x2="25"
       y2="-13"
       id="linearGradient3771"
       xlink:href="#linearGradient3663"
       gradientUnits="userSpaceOnUse" />
    <linearGradient
       x1="8"
       y1="-9"
       x2="10"
       y2="-7"
       id="linearGradient3773"
       xlink:href="#linearGradient3663"
       gradientUnits="userSpaceOnUse" />
    <linearGradient
       x1="0.5"
       y1="23"
       x2="4.5"
       y2="23"
       id="linearGradient3775"
       xlink:href="#linearGradient3663"
       gradientUnits="userSpaceOnUse" />
    <linearGradient
       x1="25"
       y1="-15"
       x2="25"
       y2="-13"
       id="linearGradient3905"
       xlink:href="#linearGradient3663"
       gradientUnits="userSpaceOnUse"
       gradientTransform="matrix(0.93920018,0.34337011,-0.34337011,0.93920018,4.2273901,-7.7779686)" />
    <linearGradient
       x1="25"
       y1="31"
       x2="25"
       y2="29"
       id="linearGradient3907"
       xlink:href="#linearGradient3663"
       gradientUnits="userSpaceOnUse"
       gradientTransform="matrix(0.93920018,0.34337011,-0.34337011,0.93920018,3.1644691,-8.6994576)" />
    <linearGradient
       x1="0.5"
       y1="23"
       x2="4.5"
       y2="23"
       id="linearGradient3909"
       xlink:href="#linearGradient3663"
       gradientUnits="userSpaceOnUse"
       gradientTransform="matrix(0.93920018,0.34337011,-0.34337011,0.93920018,9.7213118,-22.805172)" />
    <linearGradient
       x1="47"
       y1="8"
       x2="44"
       y2="7"
       id="linearGradient3911"
       xlink:href="#linearGradient3663"
       gradientUnits="userSpaceOnUse"
       gradientTransform="matrix(0.93920018,0.34337011,-0.34337011,0.93920018,4.2273901,-7.7779686)" />
    <linearGradient
       x1="7"
       y1="23"
       x2="9"
       y2="21"
       id="linearGradient3913"
       xlink:href="#linearGradient3663"
       gradientUnits="userSpaceOnUse"
       gradientTransform="matrix(0.93920018,0.34337011,-0.34337011,0.93920018,4.2273901,-7.7779686)" />
    <linearGradient
       x1="40"
       y1="-9"
       x2="38"
       y2="-7"
       id="linearGradient3915"
       xlink:href="#linearGradient3663"
       gradientUnits="userSpaceOnUse"
       gradientTransform="matrix(0.93920018,0.34337011,-0.34337011,0.93920018,4.2273901,-7.7779686)" />
    <linearGradient
       x1="41"
       y1="25"
       x2="39"
       y2="22"
       id="linearGradient3917"
       xlink:href="#linearGradient3663"
       gradientUnits="userSpaceOnUse"
       gradientTransform="matrix(0.93920018,0.34337011,-0.34337011,0.93920018,4.2273901,-7.7779686)" />
    <linearGradient
       x1="8"
       y1="-9"
       x2="10"
       y2="-7"
       id="linearGradient3919"
       xlink:href="#linearGradient3663"
       gradientUnits="userSpaceOnUse"
       gradientTransform="matrix(0.93920018,0.34337011,-0.34337011,0.93920018,4.2273901,-7.7779686)" />
    <linearGradient
       x1="18.646542"
       y1="9.3902397"
       x2="25.47591"
       y2="23.048779"
       id="linearGradient4029"
       xlink:href="#linearGradient4031"
       gradientUnits="userSpaceOnUse" />
  </defs>
  <g
     transform="translate(0,16)"
     id="layer1">
    <path
       d="m 32.857947,-13.281718 c 0.595829,1.28257 -1.625941,1.53503 -1.030111,2.8176"
       id="path3889"
       style="fill:none;stroke:url(#linearGradient3905);stroke-width:1px;stroke-linecap:round;stroke-linejoin:miter;stroke-opacity:1" />
    <path
       d="M 17.03011,26.1824 C 17.62594,27.46497 15.404169,27.71743 16,29"
       id="path3891"
       style="fill:none;stroke:url(#linearGradient3907);stroke-width:1px;stroke-linecap:round;stroke-linejoin:miter;stroke-opacity:1" />
    <path
       d="M 2.7629994,-0.86019722 C 4.0455698,-1.4560273 4.2980297,0.76574314 5.5806,0.16991314"
       id="path3893"
       style="fill:none;stroke:url(#linearGradient3909);stroke-width:1px;stroke-linecap:round;stroke-linejoin:miter;stroke-opacity:1" />
    <path
       d="m 43.148607,13.904718 c 1.28257,-0.59583 1.53503,1.62594 2.8176,1.030109"
       id="path3895"
       style="fill:none;stroke:url(#linearGradient3911);stroke-width:1px;stroke-linecap:round;stroke-linejoin:miter;stroke-opacity:1" />
    <path
       d="m 2.3585497,16.776001 c 0.4855988,-1.328231 2.2351438,0.06428 2.7207426,-1.263947"
       id="path3897"
       style="fill:none;stroke:url(#linearGradient3913);stroke-width:1px;stroke-linecap:round;stroke-linejoin:miter;stroke-opacity:1" />
    <path
       d="m 42.320587,-1.3043056 c 0.4856,-1.3282297 2.235145,0.064283 2.720744,-1.2639462"
       id="path3899"
       style="fill:none;stroke:url(#linearGradient3915);stroke-width:1px;stroke-linecap:round;stroke-linejoin:miter;stroke-opacity:1" />
    <path
       d="m 33.229769,26.120267 c 1.328229,0.485599 -0.06428,2.235145 1.263946,2.720743"
       id="path3901"
       style="fill:none;stroke:url(#linearGradient3917);stroke-width:1px;stroke-linecap:round;stroke-linejoin:miter;stroke-opacity:1" />
    <path
       d="m 14.831322,-13.483809 c 1.328231,0.485598 -0.06428,2.235143 1.263947,2.720742"
       id="path3903"
       style="fill:none;stroke:url(#linearGradient3919);stroke-width:1px;stroke-linecap:round;stroke-linejoin:miter;stroke-opacity:1" />
    <path
       d="m 25,-15 c 1,1 -1,2 0,3"
       id="path3691"
       style="fill:none;stroke:url(#linearGradient3771);stroke-width:1px;stroke-linecap:round;stroke-linejoin:miter;stroke-opacity:1" />
    <path
       d="m 25,28 c 1,1 -1,2 0,3"
       id="path3689"
       style="fill:none;stroke:url(#linearGradient3763);stroke-width:1px;stroke-linecap:round;stroke-linejoin:miter;stroke-opacity:1" />
    <path
       d="m 1,23 c 1,-1 2,1 3,0"
       transform="translate(0,-16)"
       id="path3681"
       style="fill:none;stroke:url(#linearGradient3775);stroke-width:1px;stroke-linecap:round;stroke-linejoin:miter;stroke-opacity:1" />
    <path
       d="m 44,7 c 1,-1 2,1 3,0"
       id="path3683"
       style="fill:none;stroke:url(#linearGradient3767);stroke-width:1px;stroke-linecap:round;stroke-linejoin:miter;stroke-opacity:1" />
    <path
       d="m 8,25 c 0,-1.414214 2.12132,-0.707107 2.12132,-2.121321"
       id="path3731"
       style="fill:none;stroke:url(#linearGradient3761);stroke-width:1px;stroke-linecap:round;stroke-linejoin:miter;stroke-opacity:1" />
    <path
       d="m 38,-7 c 0,-1.4142136 2.121321,-0.7071068 2.121321,-2.1213203"
       id="path3733"
       style="fill:none;stroke:url(#linearGradient3769);stroke-width:1px;stroke-linecap:round;stroke-linejoin:miter;stroke-opacity:1" />
    <path
       d="M 38.87868,21.878679 C 40.292894,21.878679 39.585787,24 41,24"
       id="path3735"
       style="fill:none;stroke:url(#linearGradient3765);stroke-width:1px;stroke-linecap:round;stroke-linejoin:miter;stroke-opacity:1" />
    <path
       d="m 8,-9 c 1.4142138,0 0.7071068,2.1213204 2.121321,2.1213204"
       id="path3737"
       style="fill:none;stroke:url(#linearGradient3773);stroke-width:1px;stroke-linecap:round;stroke-linejoin:miter;stroke-opacity:1" />
    <path
       d="M 43.465843,25 A 18.965843,18.965843 0 1 1 5.5341568,25 18.965843,18.965843 0 1 1 43.465843,25 z"
       transform="matrix(1.0281622,0,0,1.0281622,-1.189973,-17.704056)"
       id="path2881"
       style="fill:url(#radialGradient3669);fill-opacity:1;stroke:url(#linearGradient3661);stroke-width:0.97268277;stroke-linecap:round;stroke-linejoin:round;stroke-miterlimit:10;stroke-opacity:1;stroke-dasharray:none;stroke-dashoffset:0" />
    <path
       d="M 42.462036,25 A 17.962036,17.962036 0 1 1 6.5379639,25 17.962036,17.962036 0 1 1 42.462036,25 z"
       transform="matrix(1.0249852,0,0,1.0249998,-1.11243,-17.624994)"
       id="path3671"
       style="opacity:0.3;fill:none;stroke:url(#linearGradient3679);stroke-width:0.97562361;stroke-linecap:round;stroke-linejoin:round;stroke-miterlimit:10;stroke-opacity:1;stroke-dasharray:none;stroke-dashoffset:0" />
    <path
       d="M 6.9817666,26.224026 A 17.560944,17.560944 0 0 1 39.584567,16.00875"
       transform="matrix(1.0249852,0,0,1.0249998,-1.11243,-17.624994)"
       id="path4021"
       style="opacity:0.23999999;fill:url(#linearGradient4029);fill-opacity:1;stroke:none" />
  </g>
</svg>

<?xml version="1.0" encoding="UTF-8" standalone="no"?>
<!-- Created with Inkscape (http://www.inkscape.org/) -->
<svg id="svg2869" xmlns="http://www.w3.org/2000/svg" height="48" width="48" version="1.1" xmlns:xlink="http://www.w3.org/1999/xlink">
 <defs id="defs2871">
  <linearGradient id="linearGradient3663">
   <stop id="stop3665" style="stop-color:#edd563" offset="0"/>
   <stop id="stop3667" style="stop-color:#e08223" offset="1"/>
  </linearGradient>
  <linearGradient id="linearGradient3661" y2="4.5122" gradientUnits="userSpaceOnUse" x2="21.573" y1="45.488" x1="28.403">
   <stop id="stop3657" style="stop-color:#bb5e12" offset="0"/>
   <stop id="stop3659" style="stop-color:#cd8033" offset="1"/>
  </linearGradient>
  <radialGradient id="radialGradient3669" xlink:href="#linearGradient3663" gradientUnits="userSpaceOnUse" cy="9.3902" cx="19.622" gradientTransform="matrix(.19048 1.0952 -1.3678 .23788 28.729 -14.334)" r="20.488"/>
  <linearGradient id="linearGradient3679" y2="50.279" gradientUnits="userSpaceOnUse" x2="32.378" y1="6.5502" x1="16.807">
   <stop id="stop3675" style="stop-color:#fff" offset="0"/>
   <stop id="stop3677" style="stop-color:#fff;stop-opacity:0" offset="1"/>
  </linearGradient>
  <linearGradient id="linearGradient3761" y2="21" xlink:href="#linearGradient3663" gradientUnits="userSpaceOnUse" x2="9" gradientTransform="translate(1.3241 1.2972)" y1="23" x1="7"/>
  <linearGradient id="linearGradient3763" y2="29" xlink:href="#linearGradient3663" gradientUnits="userSpaceOnUse" x2="25" y1="31" x1="25"/>
  <linearGradient id="linearGradient3765" y2="22" xlink:href="#linearGradient3663" gradientUnits="userSpaceOnUse" x2="39" y1="25" x1="41"/>
  <linearGradient id="linearGradient3767" y2="7" xlink:href="#linearGradient3663" gradientUnits="userSpaceOnUse" x2="44" y1="8" x1="47"/>
  <linearGradient id="linearGradient3769" y2="-7" xlink:href="#linearGradient3663" gradientUnits="userSpaceOnUse" x2="38" y1="-9" x1="40"/>
  <linearGradient id="linearGradient3771" y2="-13" xlink:href="#linearGradient3663" gradientUnits="userSpaceOnUse" x2="25" y1="-15" x1="25"/>
  <linearGradient id="linearGradient3773" y2="-7" xlink:href="#linearGradient3663" gradientUnits="userSpaceOnUse" x2="10" y1="-9" x1="8"/>
  <linearGradient id="linearGradient3775" y2="23" xlink:href="#linearGradient3663" gradientUnits="userSpaceOnUse" x2="4.5" y1="23" x1=".5"/>
  <linearGradient id="linearGradient3905" y2="-13" xlink:href="#linearGradient3663" gradientUnits="userSpaceOnUse" x2="25" gradientTransform="matrix(.93920 .34337 -.34337 .93920 4.2274 -7.778)" y1="-15" x1="25"/>
  <linearGradient id="linearGradient3907" y2="29" xlink:href="#linearGradient3663" gradientUnits="userSpaceOnUse" x2="25" gradientTransform="matrix(.93920 .34337 -.34337 .93920 3.1645 -8.6995)" y1="31" x1="25"/>
  <linearGradient id="linearGradient3909" y2="23" xlink:href="#linearGradient3663" gradientUnits="userSpaceOnUse" x2="4.5" gradientTransform="matrix(.93920 .34337 -.34337 .93920 9.7213 -22.805)" y1="23" x1=".5"/>
  <linearGradient id="linearGradient3911" y2="7" xlink:href="#linearGradient3663" gradientUnits="userSpaceOnUse" x2="44" gradientTransform="matrix(.93920 .34337 -.34337 .93920 4.2274 -7.778)" y1="8" x1="47"/>
  <linearGradient id="linearGradient3913" y2="21" xlink:href="#linearGradient3663" gradientUnits="userSpaceOnUse" x2="9" gradientTransform="matrix(.93920 .34337 -.34337 .93920 4.2274 -7.778)" y1="23" x1="7"/>
  <linearGradient id="linearGradient3915" y2="-7" xlink:href="#linearGradient3663" gradientUnits="userSpaceOnUse" x2="38" gradientTransform="matrix(.93920 .34337 -.34337 .93920 4.2274 -7.778)" y1="-9" x1="40"/>
  <linearGradient id="linearGradient3917" y2="22" xlink:href="#linearGradient3663" gradientUnits="userSpaceOnUse" x2="39" gradientTransform="matrix(.93920 .34337 -.34337 .93920 4.2274 -7.778)" y1="25" x1="41"/>
  <linearGradient id="linearGradient3919" y2="-7" xlink:href="#linearGradient3663" gradientUnits="userSpaceOnUse" x2="10" gradientTransform="matrix(.93920 .34337 -.34337 .93920 4.2274 -7.778)" y1="-9" x1="8"/>
  <linearGradient id="linearGradient4029" y2="23.049" gradientUnits="userSpaceOnUse" x2="25.476" y1="9.3902" x1="18.647">
   <stop id="stop4033" style="stop-color:#fff" offset="0"/>
   <stop id="stop4035" style="stop-color:#fff;stop-opacity:.078431" offset="1"/>
  </linearGradient>
 </defs>
 <g id="layer1" transform="translate(0,16)">
  <path id="path3889" style="stroke:url(#linearGradient3905);stroke-linecap:round;stroke-width:1px;fill:none" d="m32.858-13.282c0.59583 1.2826-1.6259 1.535-1.0301 2.8176"/>
  <path id="path3891" style="stroke:url(#linearGradient3907);stroke-linecap:round;stroke-width:1px;fill:none" d="m17.03 26.182c0.596 1.283-1.626 1.535-1.03 2.818"/>
  <path id="path3893" style="stroke:url(#linearGradient3909);stroke-linecap:round;stroke-width:1px;fill:none" d="m2.763-0.8602c1.2826-0.5958 1.535 1.6259 2.8176 1.0301"/>
  <path id="path3895" style="stroke:url(#linearGradient3911);stroke-linecap:round;stroke-width:1px;fill:none" d="m43.149 13.905c1.2826-0.59583 1.535 1.6259 2.8176 1.0301"/>
  <path id="path3897" style="stroke:url(#linearGradient3913);stroke-linecap:round;stroke-width:1px;fill:none" d="m2.3585 16.776c0.4856-1.3282 2.2351 0.06428 2.7207-1.2639"/>
  <path id="path3899" style="stroke:url(#linearGradient3915);stroke-linecap:round;stroke-width:1px;fill:none" d="m42.321-1.3043c0.4856-1.3282 2.2351 0.064283 2.7207-1.2639"/>
  <path id="path3901" style="stroke:url(#linearGradient3917);stroke-linecap:round;stroke-width:1px;fill:none" d="m33.23 26.12c1.3282 0.4856-0.06428 2.2351 1.2639 2.7207"/>
  <path id="path3903" style="stroke:url(#linearGradient3919);stroke-linecap:round;stroke-width:1px;fill:none" d="m14.831-13.484c1.3282 0.4856-0.06428 2.2351 1.2639 2.7207"/>
  <path id="path3691" style="stroke:url(#linearGradient3771);stroke-linecap:round;stroke-width:1px;fill:none" d="m25-15c1 1-1 2 0 3"/>
  <path id="path3689" style="stroke:url(#linearGradient3763);stroke-linecap:round;stroke-width:1px;fill:none" d="m25 28c1 1-1 2 0 3"/>
  <path id="path3681" style="stroke:url(#linearGradient3775);stroke-linecap:round;stroke-width:1px;fill:none" d="m1 23c1-1 2 1 3 0" transform="translate(0,-16)"/>
  <path id="path3683" style="stroke:url(#linearGradient3767);stroke-linecap:round;stroke-width:1px;fill:none" d="m44 7c1-1 2 1 3 0"/>
  <path id="path3731" style="stroke:url(#linearGradient3761);stroke-linecap:round;stroke-width:1px;fill:none" d="m8 25c0-1.4142 2.1213-0.70711 2.1213-2.1213"/>
  <path id="path3733" style="stroke:url(#linearGradient3769);stroke-linecap:round;stroke-width:1px;fill:none" d="m38-7c0-1.4142 2.1213-0.70711 2.1213-2.1213"/>
  <path id="path3735" style="stroke:url(#linearGradient3765);stroke-linecap:round;stroke-width:1px;fill:none" d="m38.879 21.879c1.414 0 0.707 2.121 2.121 2.121"/>
  <path id="path3737" style="stroke:url(#linearGradient3773);stroke-linecap:round;stroke-width:1px;fill:none" d="m8-9c1.4142 0 0.70711 2.1213 2.1213 2.1213"/>
  <path id="path2881" style="stroke-linejoin:round;stroke:url(#linearGradient3661);stroke-linecap:round;stroke-miterlimit:10;stroke-width:.97268;fill:url(#radialGradient3669)" d="m43.466 25a18.966 18.966 0 1 1 -37.932 0 18.966 18.966 0 1 1 37.932 0z" transform="matrix(1.0282 0 0 1.0282 -1.19 -17.704)"/>
  <path id="path3671" style="opacity:.3;stroke-linejoin:round;stroke:url(#linearGradient3679);stroke-linecap:round;stroke-miterlimit:10;stroke-width:.97562;fill:none" d="m42.462 25a17.962 17.962 0 1 1 -35.924 0 17.962 17.962 0 1 1 35.924 0z" transform="matrix(1.025 0 0 1.025 -1.1124 -17.625)"/>
  <path id="path4021" style="opacity:0.24;fill:url(#linearGradient4029)" d="m6.9818 26.224a17.561 17.561 0 0 1 32.603 -10.215" transform="matrix(1.025 0 0 1.025 -1.1124 -17.625)"/>
 </g>
</svg>
